X: 22432
T: Lads And Lasses
R: three-two
M: 3/2
K: Gmajor
G4 GA B2A2G2|B2d4g2e4|d2 ed c2 dc B2 cB|B2D2 GA B2A2G2:|
A4 FG A2d2A2|FG A2A2d2B4|g2ag f2e2 ^de f2|B2b2 a2 g2f2e2|
g4 Bc d2 de d2|e4 EF G2F2 ED|G4 A4 B2 dc|B2e2 AB c2B2G2||

